packages/core/src/svgs/apfc.svg

<svg width="24" height="24" viewBox="0 0 24 24" fill="none" xmlns="http://www.w3.org/2000/svg">
<g clip-path="url(#clip0_31_5966)">
<path d="M0 0H24V24H0V0Z" fill="#535353"/>
<path fill-rule="evenodd" clip-rule="evenodd" d="M8.3572 5.14307L12.4286 7.38878V11.8974L8.3572 14.1431L4.28577 11.8974V7.38878L8.3572 5.14307ZM4.71434 7.86021V11.6445L8.14291 13.5388V9.55735L4.71434 7.85592V7.86021ZM8.57148 9.56164V13.5388L12.0001 11.6445V7.86021L8.57148 9.56164ZM11.7558 7.5045L8.3572 9.19307L4.95862 7.5045L8.3572 5.63164L11.7558 7.5045Z" fill="url(#paint0_linear_31_5966)"/>
<path fill-rule="evenodd" clip-rule="evenodd" d="M16.0714 5.14307L20.1429 7.38878V11.8974L16.0714 14.1431L12 11.8974V7.38878L16.0714 5.14307ZM12.4286 7.86021V11.6445L15.8571 13.5388V9.55735L12.4286 7.85592V7.86021ZM16.2857 9.56164V13.5388L19.7143 11.6445V7.86021L16.2857 9.56164ZM19.47 7.5045L16.0714 9.19307L12.6729 7.5045L16.0714 5.63164L19.47 7.5045Z" fill="url(#paint1_linear_31_5966)"/>
<path fill-rule="evenodd" clip-rule="evenodd" d="M12.2143 11.5713L16.2857 13.817V18.3256L12.2143 20.5713L8.14282 18.3256V13.817L12.2143 11.5713ZM8.57139 14.2884V18.0727L12 19.967V15.9856L8.57139 14.2841V14.2884ZM12.4285 15.9899V19.967L15.8571 18.0727V14.2884L12.4285 15.9899ZM15.6128 13.9327L12.2143 15.6213L8.81568 13.9327L12.2143 12.0599L15.6128 13.9327Z" fill="url(#paint2_linear_31_5966)"/>
</g>
<defs>
<linearGradient id="paint0_linear_31_5966" x1="5.14291" y1="7.28592" x2="12.4286" y2="11.1431" gradientUnits="userSpaceOnUse">
<stop stop-color="#C66329"/>
<stop offset="0.42" stop-color="#E08D39"/>
<stop offset="1" stop-color="#D6B087"/>
</linearGradient>
<linearGradient id="paint1_linear_31_5966" x1="12.2143" y1="10.7145" x2="20.1429" y2="10.7145" gradientUnits="userSpaceOnUse">
<stop stop-color="#E1B88A"/>
<stop offset="0.47" stop-color="#274527"/>
<stop offset="1" stop-color="#3A5959"/>
</linearGradient>
<linearGradient id="paint2_linear_31_5966" x1="12.2143" y1="11.5713" x2="12.2143" y2="20.5713" gradientUnits="userSpaceOnUse">
<stop stop-color="#D3B088"/>
<stop offset="0.41" stop-color="#B4B4B4"/>
<stop offset="1" stop-color="#A3A2A4"/>
</linearGradient>
<clipPath id="clip0_31_5966">
<rect width="24" height="24" fill="white"/>
</clipPath>
</defs>
</svg>

<svg xmlns="http://www.w3.org/2000/svg" width="24" height="24" fill="none" viewBox="0 0 24 24"><g clip-path="url(#a)"><path fill="#535353" d="M0 0h24v24H0z"/><path fill="url(#b)" fill-rule="evenodd" d="M8.357 5.143 12.43 7.39v4.508l-4.072 2.246-4.071-2.246V7.39zM4.714 7.86v3.785l3.429 1.894V9.557L4.714 7.856zm3.857 1.702v3.977l3.43-1.894V7.86zm3.185-2.057L8.357 9.193 4.96 7.505l3.398-1.873z" clip-rule="evenodd"/><path fill="url(#c)" fill-rule="evenodd" d="m16.071 5.143 4.072 2.246v4.508l-4.072 2.246L12 11.897V7.39zM12.43 7.86v3.785l3.428 1.894V9.557L12.43 7.856zm3.857 1.702v3.977l3.428-1.894V7.86zm3.184-2.057-3.399 1.688-3.398-1.688 3.398-1.873z" clip-rule="evenodd"/><path fill="url(#d)" fill-rule="evenodd" d="m12.214 11.571 4.072 2.246v4.509l-4.072 2.245-4.071-2.245v-4.509zm-3.643 2.717v3.785L12 19.967v-3.981l-3.429-1.702zm3.858 1.702v3.977l3.428-1.894v-3.785zm3.184-2.057-3.399 1.688-3.398-1.688 3.398-1.873z" clip-rule="evenodd"/></g><defs><linearGradient id="b" x1="5.143" x2="12.429" y1="7.286" y2="11.143" gradientUnits="userSpaceOnUse"><stop stop-color="#C66329"/><stop offset=".42" stop-color="#E08D39"/><stop offset="1" stop-color="#D6B087"/></linearGradient><linearGradient id="c" x1="12.214" x2="20.143" y1="10.714" y2="10.714" gradientUnits="userSpaceOnUse"><stop stop-color="#E1B88A"/><stop offset=".47" stop-color="#274527"/><stop offset="1" stop-color="#3A5959"/></linearGradient><linearGradient id="d" x1="12.214" x2="12.214" y1="11.571" y2="20.571" gradientUnits="userSpaceOnUse"><stop stop-color="#D3B088"/><stop offset=".41" stop-color="#B4B4B4"/><stop offset="1" stop-color="#A3A2A4"/></linearGradient><clipPath id="a"><path fill="#fff" d="M0 0h24v24H0z"/></clipPath></defs></svg>
